assets/icons/qvision/create.svg

<svg xmlns="http://www.w3.org/2000/svg" height="24" viewBox="0 0 24 24" width="24"><path d="M0 0h24v24H0z" fill="none"/><path d="M3 17.25V21h3.75L17.81 9.94l-3.75-3.75L3 17.25zM20.71 7.04c.39-.39.39-1.02 0-1.41l-2.34-2.34c-.39-.39-1.02-.39-1.41 0l-1.83 1.83 3.75 3.75 1.83-1.83z"/></svg>

<svg width="24" height="24" viewBox="0 0 24 24" fill="none" xmlns="http://www.w3.org/2000/svg">
<g clip-path="url(#clip0_147_2122)">
<path d="M3 17.25V21H6.75L17.81 9.94L14.06 6.19L3 17.25ZM20.71 7.04C21.1 6.65 21.1 6.02 20.71 5.63L18.37 3.29C17.98 2.9 17.35 2.9 16.96 3.29L15.13 5.12L18.88 8.87L20.71 7.04Z" fill="#323232"/>
</g>
<defs>
<clipPath id="clip0_147_2122">
<rect width="24" height="24" fill="white"/>
</clipPath>
</defs>
</svg>
